X: 1
T:Intrada 9
C:Johann Pezel
Z:Transcribed by Frank Nordberg - http://www.musicaviva.com

V:1 Program 1 56 %Trumpet
V:2 Program 1 56 %Trumpet
V:3 Program 1 56 %Trumpet
V:4 Program 1 56 bass %Trumpet
V:5 Program 1 56 bass %Trumpet
M:C
L:1/8
Q:1/2=60
K:C
V:1
e2e2d3d|e2c2d2e2|f4e2GA|Bcd2ABcd|
V:2
c2c2B3B|c2A2B2c2|c3Bc2 z2|G2DE FGA2|
V:3
G2G2G3G|G2A2G2G2|F2G2G2EF|G3ED2C2-|
V:4
C2C2D3D|C2F2D2C2|A,2G,2C2 z2|z2 B,2A,4|
V:5
C,2C,2G,3F,|E,2F,4E,2|D,4C,2 z2|G,,A,,B,,C,D,2A,,B,,|
V:1
efg2g3^f|g2 z de2d2|d2c4B2|A4G4:|
V:2
GAB2A2A2|B2 z BG2A2|B2A4G2-|G3^FG4:|
V:3
C2D2D4|D2 z GE2^F2|E4D4|D4D4:|
V:4
E,2B,G,A,2C2|B,2 z G,G,2D2|B,2C2A,2B,2|D2C2B,4:|
V:5
C,2B,,2D,4|G,,2 z B,,C,2^F,,2|^G,,2A,,2^F,,2=G,,2|D,4G,,4:|

V:1
|:z4 g3g|abag fgfe|d2g2g3^f|g4 z2 gf|
V:2
|:B3B cdcB|A3A dedc|B2B2A4|B2BA G2ed|
V:3
|:D3D EFED|C3CD3D|D2D2E2D2|D2 z2 z2 G2|
V:4
|:B,3B,G,3G,|C3A,A,3A,|B,2B,2 z G,CA,|G,2DC B,A, G,A,/B,/|
V:5
|:G,,3G,,E,4|F,3E,D,4|G,2B,,2C,2D,2|G,,4G,F,E,2|

V:1
e2ag fed2|d3^cd2 z f|f2e4d2|d4c4:|
V:2
cBA3A^A2|G4F2 z d|d2c4c2-|c3Bc4:|
V:3
A2CEF3G|E4D2 z D|D2EFG2A2|G4G4:|
V:4
C3CD2D2|A,6 z A,|G,2G,3G,D2-|D2F2E4:|
V:5
A,G,F,E, D,C,^A,,G,,|A,,2A,,2D,2 z D,|B,,2C,2E,2F,2|G,2G,,2C,4:|

